X: 15
T:L'alouette est sur la branche
R:---
M:2/4
L:1/8
K:Eb
V:1
dg ge|f3 g|(ed) c2:| B>B cd|e2
w:L'a-lou-ette est sur la bran-*che, Faites un pe-tit saut,
f>e|dd ed|c2 B2| B>B cd|e2 f>e|dd ed|c2 z2|
w:L'a-lou-et-te, L'a-lou-et-te, Faites un pe-tit saut, L'a-lou-et-te comme il faut.

%%footer $D   Galouvielle-MBe 2006 \nFarandole (France)
